X: 21364
T: Kerry Jig, The
R: slide
M: 12/8
K: Adorian
|:~A3 AGE|ABA AGE|GBA GBA|GED DE/F/G|
~A3 ABc|BAB G3|GBd dcB|1 c3 B3:|2 c3 c2d||
|:ege egd|cde ~g2A|GBA GBA|GED DE/F/G|
~A3 ABc|BAB G3|GBd dcB|1 c3 c2d:|2 c3 B3||

